X:1
T:D minor, E minor Timothy Swan, 1801
T:Isaac Watts, 1706 Confession and Pardon      86. 86. (C. M.)
T:Boxford
T:Transcribed from  The New England Harmony, 1801.
%%score [ 1 2 3 4 ]
L:1/8
Q:1/4=120
M:4/4
K:G
V:1 treble nm="Tr." snm="Tr."
V:2 treble nm="C." snm="C."
V:3 treble-8 nm="T." snm="T."
V:4 bass nm="B." snm="B."
V:1
"^3. O'er–come  by  dy–ing       love,     Here  at  thy  cross    I      lie:        And throw my flesh,  my  soul,   my    all,""^1. My sorrows,      like  a        flood,   Im–pa–tient  of         restraint,    In –  to   thy      bo  –  som,   O    my    God,""^2. Now,  for  one   powerful  glance,  Dear Savior,  from    thy  face!    This  re –bel     heart  no  more  withstands," B4 e4 | %1
 d4 B2 B2 | d8 | d4 g2 e2 | (d4 e2) c2 | B8 | B4 B2 AG | B2 cB A2 A2 | d8 | z8 | z8 | z8 | %12
"^Pour                        out a long com–plaint, ___________       Pour                                     out      a        long  com – plaint.""^But                       sinks beneath thy grace ____________      But                                        sinks  be – neath  thy    grace.""^And                       weep and love and die, _____________      And                                       weep   and   l ove  and    die." d8 | %13
 g2 B2 B2 G2 | (A4 B2 d2 | B8) | d8 | d2 d2 d2 dB | d8 |] %19
V:2
 E4 G4 | B4 G2 G2 | A8 | B4 G2 E2 | (A4 B2) A2 | G8 | B4 G2 E2 | G2 G2 A2 A2 | A8 | z8 | z8 | %11
"^But                         sinks beneath thy grace,""^And                        weep and love and die,""^Pour                       out  a    long  com–plaint," G8 | %12
 B2 B2 AG F2 | E8 | z8 | %15
"^Pour    out       a      long  com–plaint. __________________________""^But      sinks   be –neath  thy  grace. ___________________________""^And     weep    and  love  and    die.  ____________________________" B8 | %16
 BA GB A2 A2 | A8- | A8 |] %19
V:3
"^1. My sorrows,      like  a        flood,   Im–pa–tient  of         restraint,    In –  to   thy      bo  –  som,   O    my    God,                 Pour""^2. Now,  for  one   powerful  glance,  Dear Savior,  from    thy  face!    This  re –bel     heart  no  more  withstands,              But""^3. O'er–come  by  dy–ing       love,     Here  at  thy  cross    I      lie:        And throw my flesh,  my  soul,   my    all,                   And" B4 (B4 | %1
 d2) d2 B2 AG | A8 | B4 e2 e2 | (d4 B2) A2 | d8 | d4 B2 e2 | dB AG A2 A2 | A8 | z8 | d8 | %11
"^out  a  long  com –plaint,                       Pour    out  a     long     com–plaint,  Pour            out     a           long    com  –plaint. ________""^sinks beneath thy grace,                       But    sinks be–neath   thy    grace,   But             sinks  be   –   neath  thy     grace. _________""^weep  and  love  and  die,                      And   weep  and  love   and    die,      And             weep   and      love    and    die. ____________" d2 d2 d2 dB | %12
 d8 | B4 B2 B2 | d6 d2 | e8 | d4 d2 dB | AG AB A4- | A8 |] %19
V:4
 E,4 E,4 | B,,4 E,2 E,2 | D,8 | B,,4 C,2 A,,2 | (D,4 E,2) F,2 | G,8 | B,,4 E,2 E,2 | %7
 G,2 F,E, D,2 D,2 | D,8 | %9
"^Pour   out  a  long com –""^But   sinks beneath thy""^And  weep and love and" D,8 | %10
 G,2 G,2 G,2 G,E, | %11
"^– plaint,                     Pour    out      a       long      com – plaint,  Pour                out      a       long  com  – plaint. _________________________""^grace,                      But      sinks   be–neath        thy   grace,   But                  sinks   be – neath  thy    grace. __________________________""^die,                          And     weep   and  love         and    die,     And                  weep   and   love   and      die. ____________________________" G,8 | %12
 B,,4 D,2 D,2 | E,6 E,2 | D,4 (B,,4 | E,8) | B,,2 B,,2 D,2 D,2 | D,8- | D,8 |] %19

